X:1
T:Title
%%score 1 { ( 2 4 ) | ( 3 5 ) }
L:1/8
M:12/8
K:Ab
V:1 treble nm="Akkordion"
V:2 treble nm="Grand Piano"
V:4 treble 
V:3 treble 
V:5 treble 
V:1
 z6 z3[Q:1/4=104] E3 | A3 A3- A2 G A2 B | c3 c6 cdc | B2 =A B6 ded | c2 _c =c6 E3 | %5
 A3 A3- A2 G A2 B | c3 c6 cdc | B2 =A B2 d c3 B3 |[M:9/8] A8- A |[M:3/8] B2 A | %10
[M:6/4] G2 B e3- e=dcBAG | F2 A c3- c3 e3 | =d3 d3- dcBAGA | c3 B3- B2- B/ z/ B2 A | %14
 G2 B e3- e.=d.c.BAG | F2 A c3- c3 e3 | =d3 d3- dcBAGF |[M:21/16] E3/2-E3/2-E3/2-E3/2-E3/2- E3 | %18
[M:3/8] E3 |[M:6/4] A3 A3- A2 G A2 B | c3 c3- c3 cdc | B2 =A B3- B3 ded | c2 _c =c3- c3 E3 | %23
 A3 A3- A2 G A2 B | c3 c3- c3 cdc | B2 =A B2 d c3 B3 |[M:17/8] A-A-A-A-A-A- A3 z z z z z z z2 |] %27
V:2
 z12 | [Aca]3 [Aca]3- [Aca]2 [GBg] [Aca]2 [Bdb] | [cec']3 [cec']6 [cac'][dbd'][cac'] | %3
 [Bgb]2 [=A_g=a] [B=gb]6 [dbd'][ec'e'][dbd'] | [cac']2 [_cg_c'] [=ca=c']6 [Gde]3 | %5
 [Aca]3 [Aca]3- [Aca]2 [GBg] [Aca]2 [Bdb] | [cec']3 [cec']6 [cac'][dbd'][cac'] | %7
 [Bgb]2 [=A_g=a] [B=gb]2 [dfd'] [cec']3 [Bdb]3 |[M:9/8] [Aca]8- [Aca] |[M:3/8] [gb]2 [fa] | %10
[M:6/4] [Geg]2 [Bgb] [ege']3- [ege'][=db=d'][cac'][Bgb][Afa][Geg] | %11
 [Fcf]2 [Afa] [cac']3- [cac']3 [ec'e']3 | [=db=d']3 [dbd']3- [dbd'][cac'][Bgb][Afa][Geg][Afa] | %13
 [cac']3 c'3 b3 [Bgb]2 [Afa] | [Geg]2 [Bgb] [ege']3- [ege'][=db=d'][cac'][Bgb][fa][Geg] | %15
 [FAf]2 [Aea] [cac']3- [cac']3 [ec'e']3 | [=db=d']3 [dbd']3- [dbd'][cac'][Bgb]agf | %17
[M:21/16] e3/2-e3/2-e3/2-e3/2-e3/2- e3 |[M:3/8] z3 | %19
[M:6/4] [Aca]3 [Aca]3- [Aca]2 [GBg] [Aca]2 [Bdb] | [cec']3 [cec']3- [cec']3 [cac'][dbd'][cac'] | %21
 [Bgb]2 [=A_g=a] [B=gb]3- [Bgb]3 [dbd'][ec'e'][dbd'] | [cac']2 [_cg_c'] [=ca=c']3- [cac']3 [Gde]3 | %23
 [Aca]3 [Aca]3- [Aca]2 [GBg] [Aca]2 [Bdb] | [cec']3 [cec']3- [cec']3 [cac'][dbd'][cac'] | %25
 [Bgb]2 [=A_g=a] [B=gb]2 [dfd'] [cec']3 [Bdb]3 | %26
[M:17/8] [Aca]-[Aca]-[Aca]-[Aca]-[Aca]-[Aca]- [Aca]3 z z z z z z z2 |] %27
V:3
 z6 z3 e3 | A,,C,E, A,E,C, A,,C,E, A,E,C, | A,,C,E, A,E,C, A,,C,E, A,E,C, | %3
 E,,G,,B,, E,B,,G,, E,,G,,B,, E,B,,G,, | A,,C,E, A,E,C, A,,C,E, G,F,E, | %5
 A,,C,E, A,E,C, A,,C,E, A,E,C, | A,,C,E, A,E,C, A,,C,E, A,E,C, | %7
 E,,G,,B,, E,B,,G,, E,,A,,C, E,F,G, |[M:9/8] A,G,A, F,E,C, A,,3 |[M:3/8][K:treble] B2 A | %10
[M:6/4][K:bass] E,G,B,EB,G, E,G,B,EB,G, | A,,F,A,CA,F, A,,F,A,CA,F, | B,,A,B,=DB,A, B,,A,B,DB,A, | %13
 E,G,B,EB,G, E,G,B,EB,G, | E,G,B,EB,G, E,G,B,[K:treble]E[B,G][K:bass]G, | %15
 A,,F,A,CA,F, G,,F,A,CA,F, | B,,F,B,=DB,A, B,,A,B,[K:treble][DAc][B,GB][A,FA] | %17
[M:21/16][K:bass] E-[F,E]/-[F,E-]/[_G,E-][=G,E-][A,E]/-[A,E-]/[=A,E-][_CE]3/2- [CE]3 | %18
[M:3/8][K:treble] e3 |[M:6/4][K:bass] A,,C,E,A,E,C, A,,C,E,A,E,C, | A,,C,E,A,E,C, A,,C,E,A,E,C, | %21
 E,,G,,B,,E,B,,G,, E,,G,,B,,E,B,,G,, | A,,C,E,A,E,C, A,,C,E,G,F,E, | A,,C,E,A,E,C, A,,C,E,A,E,C, | %24
 A,,C,E,A,E,C, A,,C,E,A,E,C, | E,,G,,B,,E,B,,G,, E,,A,,C,E,F,G, | %26
[M:17/8] A,G,A,F,E,C, A,,3 z z z z z z z2 |] %27
V:4
 x12 | x12 | x12 | x12 | x12 | x12 | x12 | x12 |[M:9/8] x9 |[M:3/8] x3 |[M:6/4] x12 | x12 | x12 | %13
 z2 z [Bg]3- [Bg]3 z z2 | x12 | x12 | x12 |[M:21/16] z A,/-A,/=A,B,_C/-C/=CD3/2- D3 |[M:3/8] x3 | %19
[M:6/4] x12 | x12 | x12 | x12 | x12 | x12 | x12 |[M:17/8] x17 |] %27
V:5
 x12 | x12 | x12 | x12 | x12 | x12 | x12 | x12 |[M:9/8] x9 |[M:3/8][K:treble] x3 | %10
[M:6/4][K:bass] x12 | x12 | x12 | x12 | x9[K:treble] x2[K:bass] x | x12 | x9[K:treble] x3 | %17
[M:21/16][K:bass] .[E,G,]3/2 z3/2 z3/2 z3/2 z3/2 z3 |[M:3/8][K:treble] x3 |[M:6/4][K:bass] x12 | %20
 x12 | x12 | x12 | x12 | x12 | x12 |[M:17/8] x17 |] %27

